!!!!SEGMENT: Lfg2002-Elizabeth_Zacharie.krn
!!!id: Lfg2002
!!!AGN: Motet
!!!voices: 4
!!!COM: Jean de la Fage
!!!OTL: Elizabeth Zacharie
**kern	**kern	**kern	**kern
*part4	*part3	*part2	*part1
*staff4	*staff3	*staff2	*staff1
*I"Bassus	*I"Tenor	*I"Altus	*I"Superius
*I'B	*I'T	*I'A	*I'S
*clefF4	*clefGv2	*clefGv2	*clefG2
*k[]	*k[]	*k[]	*k[]
*C:	*C:	*C:	*C:
*M2/1	*M2/1	*M2/1	*M2/1
*met(C|)	*met(C|)	*met(C|)	*met(C|)
!!section: Prima pars: Elizabeth Zacharie
!!!OMD: Prima pars: Elizabeth Zacharie
=1	=1	=1	=1
0r	0r	1.G	0g
.	.	2A	.
=2	=2	=2	=2
0r	0r	2B	1g
.	.	1c	.
.	.	.	1a
.	.	4B	.
.	.	4A	.
=3	=3	=3	=3
0r	1r	2G	1b
.	.	2d	.
.	1G	4e	1g
.	.	4d	.
.	.	[2g	.
=4	=4	=4	=4
0r	1A	2g]	1cc
.	.	4f#i	.
.	.	4e	.
.	1A	1f#i	1cc
=5	=5	=5	=5
0r	2.G	2.g	1b
.	4A	4f	.
.	2B	2d	[1g
.	[2c	[2e	.
=6	=6	=6	=6
0r	2c]	2e]	1g]
.	4B	4d	.
.	4A	4c	.
.	2B	2d	1g
.	[2c	[2e	.
=7	=7	=7	=7
0r	4c]	4e]	1a
.	4A	4c	.
.	1d	2.f	.
.	.	.	2b
.	.	8eL	.
.	.	8dJ	.
.	2c	2e	[2a
=8	=8	=8	=8
0r	2d	2f	4a]
.	.	.	4g
.	2G	1d	1g
.	1A	.	.
.	.	2c	2f#i
=9	=9	=9	=9
2r	2G	0d	1g
1G	2.B	.	.
.	.	.	1r
.	4G	.	.
2F	2A	.	.
=10	=10	=10	=10
2.G	2.B	2r	0r
.	.	1d	.
4F	4A	.	.
2G	2B	.	.
2E	2G	2c	.
=11	=11	=11	=11
1D	2.A	2.d	0r
.	4G	4c	.
2r	4F	2d	.
.	4E	.	.
[2D	2F	2B	.
=12	=12	=12	=12
2D]	1E	0A	0r
2C	.	.	.
2.D	2D	.	.
.	[2A	.	.
4C	.	.	.
=13	=13	=13	=13
2D	2A]	2r	0r
2BB	2G	2d	.
1AA	2.A	2c	.
.	.	[2e	.
.	4G	.	.
=14	=14	=14	=14
1r	2A	4e]	0r
.	.	4d	.
.	2F	1d	.
1AA	1E	.	.
.	.	2c#i	.
=15	=15	=15	=15
1D	2D	1d	0r
.	1A	.	.
2BB	.	1r	.
2C	[2G	.	.
=16	=16	=16	=16
1AA	2G]	0r	1r
.	2F#i	.	.
1GG	1G	.	2r
.	.	.	2g
=17	=17	=17	=17
0r	1A	2r	1cc
.	.	2c	.
.	1D	1f	1a
=18	=18	=18	=18
1r	2r	1d	1b
.	2G	.	.
2r	1c	1e	1g
2C	.	.	.
=19	=19	=19	=19
1F	1A	1c	1a
1D	1B	1d	2r
.	.	.	2d
=20	=20	=20	=20
1E	1G	2r	1g
.	.	2G	.
1C	1A	1c	2e
.	.	.	2e
=21	=21	=21	=21
1D	2r	2A	1f
.	2D	2A	.
2r	1G	1B	1d
2GG	.	.	.
=22	=22	=22	=22
1C	2E	1G	1r
.	2E	.	.
2AA	1F	1A	2r
2AA	.	.	2a
=23	=23	=23	=23
1BB	1D	1F	1dd
1GG	2r	1G	2b
.	[2G	.	2b
=24	=24	=24	=24
1C	2G]	1.A	2cc
.	4F	.	2cc
.	4E	.	.
1D	1F	.	1a
.	.	[2d	.
=25	=25	=25	=25
1GG	2G	4d]	4b
.	.	4c	4a
.	2D	4B	4b
.	.	4A	4cc
2r	2.G	2.B	2.dd
[2G	.	.	.
.	4A	4c	4cc
=26	=26	=26	=26
2G]	4B	4d	2b
.	4G	4e	.
2F	2c	2f	2.a
2G	2B	2d	.
.	.	.	4g
2E	2G	2c	[2g
=27	=27	=27	=27
2D	1A	1d	2g]
2D	.	.	2f#i
1GG	[1G	1B	2.g
.	.	.	4fny
=28	=28	=28	=28
2r	1G]	2r	4e
.	.	.	4d
2C	.	2c	2.e
1D	1r	2B	.
.	.	.	4d
.	.	[2A	[2d
=29	=29	=29	=29
1E	2r	4A]	2d]
.	.	4G	.
.	2G	1G	2c#i
1D	1A	.	[1d
.	.	2F#i	.
=30	=30	=30	=30
0r	1B	2.G	1d]
.	.	4F	.
.	2.A	2D	2r
.	.	2F	2d
.	4B	.	.
=31	=31	=31	=31
2r	4c	1E	1e
.	4d	.	.
2C	2e	.	.
2D	2A	1D	1f
2F	[2d	.	.
=32	=32	=32	=32
1E	2d]	0r	1g
.	2c	.	.
2.D	2.d	.	1r
4E	4c	.	.
=33	=33	=33	=33
4F	4A	0r	0r
4G	4B	.	.
4A	2.c	.	.
4B	.	.	.
2A	.	.	.
.	4B	.	.
[2G	4A	.	.
.	4G	.	.
=34	=34	=34	=34
2G]	1A	1r	2r
2F#i	.	.	2a
1G	1G	2r	1b
.	.	2d	.
=35	=35	=35	=35
1C	1r	1e	1g
1r	2r	1c	1a
.	2A	.	.
=36	=36	=36	=36
2r	1B	1d	1d
2D	.	.	.
1E	1G	1G	1r
=37	=37	=37	=37
1C	1A	0r	2r
.	.	.	2e
1D	1D	.	1f
=38	=38	=38	=38
1GG	2r	2r	1g
.	2G	2B	.
1r	1A	1c	2e
.	.	.	2e
=39	=39	=39	=39
0r	1B	1d	1d
.	1G	2B	1dd
.	.	2B	.
=40	=40	=40	=40
0r	1c	2.A	2.cc
.	.	4B	4b
.	1r	4c	2a
.	.	4d	.
.	.	[2e	[2g
=41	=41	=41	=41
0r	1r	4e]	4g]
.	.	4d	4f
.	.	1d	4e
.	.	.	4d
.	1A	.	1e
.	.	2c#i	.
=42	=42	=42	=42
1G	1B	0d	[0d
2F	2A	.	.
[2G	[2B	.	.
=43	=43	=43	=43
2G]	2B]	1r	0d]
4F	4A	.	.
4E	4G	.	.
2F	2A	1d	.
2G	2B	.	.
=44	=44	=44	=44
1C	2.c	0e	0r
.	4B	.	.
1r	4A	.	.
.	4G	.	.
.	[2A	.	.
=45	=45	=45	=45
1D	2A]	1d	0a
.	4G	.	.
.	4F	.	.
2C	2E	1r	.
[2D	[2F	.	.
=46	=46	=46	=46
2D]	2F]	1r	1a
4C	4E	.	.
4BB	4D	.	.
2C	2E	2r	1a
2D	2F	[2d	.
=47	=47	=47	=47
1GG	0G	4d]	4b
.	.	4c	4a
.	.	4B	4b
.	.	4A	4cc
2r	.	1B	2dd
2G	.	.	2b
=48	=48	=48	=48
2.F	2.A	1c	0a
4E	4G	.	.
4D	4F	1d	.
4C	4E	.	.
[2D	2F	.	.
=49	=49	=49	=49
2D]	2D	1r	1r
4C	1G	.	.
4BB	.	.	.
2AA	.	2r	1a
2AA	2F#i	2c	.
=50	=50	=50	=50
1GG	2G	2B	2b
.	2B	1G	2.dd
1D	1A	.	.
.	.	.	4cc
.	.	2F	2a
=51	=51	=51	=51
2r	2.G	1G	1b
2G	.	.	.
.	4F	.	.
2F	2D	2.A	1a
[2D	2d	.	.
.	.	4G	.
=52	=52	=52	=52
4D]	2.B	4F	2.dd
4C	.	4E	.
4BB	.	2.D	.
4AA	4c	.	4cc
2GG	1d	.	2b
.	.	4E	.
2D	.	4F	[2a
.	.	4G	.
=53	=53	=53	=53
2AA	2c	2A	4a]
.	.	.	4g
2BB	2B	2D	1g
2C	1A	2E	.
2D	.	2F	2f#i
=54	=54	=54	=54
1GG	1G	2D	1g
.	.	1d	.
1r	1A	.	1e
.	.	2c#i	.
=55	=55	=55	=55
2r	2D	0d	2r
2GG	2G	.	2g
2GG	2G	.	2g
2GG	2G	.	2g
=56	=56	=56	=56
1D	1A	2r	1f
.	.	2d	.
1GG	1G	2d	1g
.	.	2d	.
=57	=57	=57	=57
1C	2r	1e	2r
.	2G	.	2g
2GG	2G	[1d	2g
2GG	2G	.	2g
=58	=58	=58	=58
1D	1F	1d]	1a
2GG	1G	2r	1g
2G	.	2d	.
=59	=59	=59	=59
2G	2r	2d	2r
2G	2G	2d	2g
1E	2G	1c	2g
.	2G	.	2g
=60	=60	=60	=60
1D	1A	1d	1f
2r	2G	2r	[1gl
2GG	2B	2d	.
=61	=61	=61	=61
2GG	2B	2d	0g_
2GG	2B	2d	.
1C	1c	1e	.
=62	=62	=62	=62
00GG	00B	00d	00g]
=63||	=63||	=63||	=63||
*M2/1	*M2/1	*M2/1	*M2/1
*met(C|)	*met(C|)	*met(C|)	*met(C|)
!!section: Secunda pars: Inter natos mulierum
!!!OMD: Secunda pars: Inter natos mulierum
1r	0G	0r	0r
[1C	.	.	.
=64	=64	=64	=64
1C]	1A	0r	0r
1D	1B	.	.
=65	=65	=65	=65
1E	1c	0c	0r
1F	2r	.	.
.	2A	.	.
=66	=66	=66	=66
0r	2B	1d	0r
.	1d	.	.
.	.	1e	.
.	2c	.	.
=67	=67	=67	=67
0r	2d	1f	0r
.	2A	.	.
.	4B	2r	.
.	4c	.	.
.	4d	2d	.
.	4B	.	.
=68	=68	=68	=68
1r	4c	2e	0r
.	4B	.	.
.	4A	1g	.
.	4G	.	.
2r	1A	.	.
2D	.	2f#i	.
=69	=69	=69	=69
2E	1G	2.g	0g
1G	.	.	.
.	.	4f	.
.	1r	2d	.
4F	.	2e	.
4E	.	.	.
=70	=70	=70	=70
1F	0r	2c	1a
.	.	1d	.
1G	.	.	1b
.	.	[2e	.
=71	=71	=71	=71
1A	2r	2e]	1cc
.	1A	2.f	.
1D	.	.	2r
.	.	4d	.
.	4G	[2d	2a
.	4F	.	.
=72	=72	=72	=72
0r	2G	2d]	2b
.	2F	2f	1dd
.	2G	1e	.
.	2A	.	2cc#i
=73	=73	=73	=73
0r	2D	0d	1dd
.	1d	.	.
.	.	.	2r
.	4c	.	[2dd
.	4B	.	.
=74	=74	=74	=74
0r	4A	1r	2dd]
.	4G	.	.
.	2A	.	2cc
.	1G	2r	1b
.	.	[2g	.
=75	=75	=75	=75
0r	0r	2g]	1a
.	.	2f	.
.	.	1e	2r
.	.	.	[2g
=76	=76	=76	=76
0r	1r	1d	2g]
.	.	.	2f
.	2r	1r	1e
.	[2c	.	.
=77	=77	=77	=77
2r	2c]	1r	1d
1G	2B	.	.
.	1A	2r	1r
2F	.	[2d	.
=78	=78	=78	=78
1E	2.G	2d]	0r
.	.	2c#i	.
.	4A	.	.
2.D	4B	1d	.
.	4c	.	.
.	[2d	.	.
4E	.	.	.
=79	=79	=79	=79
4F	4d]	0r	0r
4G	4c	.	.
2.A	1c	.	.
4G	.	.	.
[2G	2B	.	.
=80	=80	=80	=80
2G]	2G	0r	0r
2F	2.A	.	.
2D	.	.	.
.	4G	.	.
[2E	[2G	.	.
=81	=81	=81	=81
4E]	2G]	0r	0r
4D	.	.	.
1D	2F	.	.
.	1E	.	.
2C	.	.	.
=82	=82	=82	=82
2BB	2D	0r	1r
4AA	1G	.	.
4GG	.	.	.
1AA	.	.	1a
.	2F#i	.	.
=83	=83	=83	=83
1GG	1G	1d	1b
1r	1r	1e	2.g
.	.	.	4f
=84	=84	=84	=84
0r	0r	1c	2g
.	.	.	2.a
.	.	1d	.
.	.	.	4g
.	.	.	4f
.	.	.	4e
=85	=85	=85	=85
1r	1r	2B	2d
.	.	2c	1g
1D	2r	1A	.
.	2d	.	2f#i
=86	=86	=86	=86
1E	2B	1G	0g
.	2.c	.	.
1C	.	1r	.
.	4B	.	.
.	4A	.	.
.	4G	.	.
=87	=87	=87	=87
1D	2B	0r	0r
.	2.A	.	.
2BB	.	.	.
.	4G	.	.
2C	[2G	.	.
=88	=88	=88	=88
1AA	2G]	1r	2r
.	2F#i	.	2cc
1GG	1G	2r	2.b
.	.	2g	.
.	.	.	4g
=89	=89	=89	=89
0r	1r	2.f	2a
.	.	.	2a
.	.	4d	.
.	2r	2e	1g
.	2c	2e	.
=90	=90	=90	=90
2r	2.B	1d	0r
2G	.	.	.
.	4G	.	.
2.F	2A	1r	.
.	2A	.	.
4D	.	.	.
=91	=91	=91	=91
2E	1G	2r	0r
2E	.	2c	.
1D	1r	1d	.
=92	=92	=92	=92
0r	0r	1e	2r
.	.	.	2g
.	.	1f	1a
=93	=93	=93	=93
0r	0r	2d	1b
.	.	1e	.
.	.	.	1cc
.	.	[2f	.
=94	=94	=94	=94
0r	0r	2f]	2a
.	.	2d	2.b
.	.	2.e	.
.	.	.	4g
.	.	.	[2cc
.	.	4c	.
=95	=95	=95	=95
0r	0r	2f	4cc]
.	.	.	4a
.	.	2d	2.dd
.	.	2.g	.
.	.	.	4cc
.	.	.	4b
.	.	4f	4a
=96	=96	=96	=96
0r	0r	4e	2g
.	.	4d	.
.	.	2c	2.a
.	.	2.d	.
.	.	.	4g
.	.	.	4f
.	.	4c	4e
=97	=97	=97	=97
0G	0r	4B	2d
.	.	4A	.
.	.	2G	2.dd
.	.	2r	.
.	.	.	4cc
.	.	[2g	4b
.	.	.	4a
=98	=98	=98	=98
0G	0r	2g]	2g
.	.	4f	1cc
.	.	4e	.
.	.	1d	.
.	.	.	2b
=99	=99	=99	=99
0A	0r	2.c	0cc
.	.	4d	.
.	.	2e	.
.	.	2f	.
=100	=100	=100	=100
2.G	0d	2g	0r
.	.	2.G	.
4F	.	.	.
4G	.	.	.
4F	.	4A	.
[2G	.	4B	.
.	.	4c	.
=101	=101	=101	=101
2G]	0d	2B	0r
4F	.	1c	.
4E	.	.	.
1D	.	.	.
.	.	2B	.
=102	=102	=102	=102
4C	0e	2.c	0r
4D	.	.	.
4E	.	.	.
4F	.	4A	.
2G	.	2B	.
2A	.	2c	.
=103	=103	=103	=103
2D	1d	2A	0r
1G	.	2.B	.
.	1d	.	.
.	.	4G	.
2F	.	2A	.
=104	=104	=104	=104
1G	1d	1B	1r
1C	1c	1G	1g
=105	=105	=105	=105
0r	2.A	0r	2.cc
.	4B	.	4b
.	4c	.	2a
.	4d	.	.
.	4e	.	[2g
.	4f	.	.
=106	=106	=106	=106
2r	2e	0r	2g]
2F	1d	.	2f
2G	.	.	1e
2A	2c#i	.	.
=107	=107	=107	=107
1D	0d	1r	2d
.	.	.	2dd
1G	.	2r	2b
.	.	2g	2b
=108	=108	=108	=108
1C	0r	2e	2cc
.	.	2e	2cc
1r	.	2f	1a
.	.	2f	.
=109	=109	=109	=109
1r	2r	0d	0r
.	2d	.	.
2r	2B	.	.
2G	2B	.	.
=110	=110	=110	=110
2E	2c	0r	0r
2E	2c	.	.
2F	1A	.	.
2F	.	.	.
=111	=111	=111	=111
1D	0r	1r	1dd
1r	.	1g	2b
.	.	.	2b
=112	=112	=112	=112
0r	1r	2e	2cc
.	.	2e	2cc
.	1d	2f	2a
.	.	2f	2a
=113	=113	=113	=113
1G	2B	2d	1b
.	2B	2d	.
2E	2c	1e	1g
2E	2c	.	.
=114	=114	=114	=114
2F	2A	1c	0r
2F	2A	.	.
2D	1B	1r	.
2D	.	.	.
=115	=115	=115	=115
1E	1G	1e	1g
1C	1r	2e	2g
.	.	2e	2g
=116	=116	=116	=116
2r	1c	2e	2g
2C	.	2e	2g
2C	2c	1e	1g
2C	2c	.	.
=117	=117	=117	=117
2C	2c	1e	1g
2C	2c	.	.
2.F	1c	[1f	2.a
4E	.	.	4g
=118	=118	=118	=118
4F	1c	1f]	4a
4G	.	.	4b
2A	.	.	1cc
2G	1d	[1g	.
2G	.	.	2b
=119	=119	=119	=119
0C	0c	1g]	1cc
.	.	1e	2r
.	.	.	2cc
=120	=120	=120	=120
0r	0r	2r	2b
.	.	2g	2g
.	.	2f	2.a
.	.	2d	.
.	.	.	4b
=121	=121	=121	=121
1r	2r	2.e	1cc
.	2c	.	.
.	.	4f	.
2r	2B	1g	1r
2G	2G	.	.
=122	=122	=122	=122
2F	2.A	0r	1r
2D	.	.	.
.	4B	.	.
2.E	1c	.	2r
.	.	.	2cc
4F	.	.	.
=123	=123	=123	=123
1G	2r	2r	2b
.	2d	2g	2g
2r	2d	2f	2.a
2D	2d	2d	.
.	.	.	4b
=124	=124	=124	=124
2A	1c	2.e	1cc
2A	.	.	.
.	.	4f	.
1G	1d	1g	1b
=125	=125	=125	=125
*M3/1	*M3/1	*M3/1	*M3/1
*met(C|3)	*met(C|3)	*met(C|3)	*met(C|3)
0.C	0c	0.e	0cc
.	1c	.	1cc
=126	=126	=126	=126
0.r	1c	0.r	1cc
.	0d	.	1a
.	.	.	1b
=127	=127	=127	=127
0C	0.c	0c	0.cc
1C	.	1c	.
=128	=128	=128	=128
1C	0.r	1c	0.r
0D	.	1A	.
.	.	1B	.
=129	=129	=129	=129
1C	0e	1.c	0cc
1.c	.	.	.
.	.	2d	.
.	1c	1e	1cc
2B	.	.	.
=130	=130	=130	=130
1A	1c	1f	1cc
0G	0d	0g	0b
=131	=131	=131	=131
1A	1.c	1e	0cc
1F	.	1f	.
.	4B	.	.
.	4A	.	.
1G	1B	1d	1r
=132	=132	=132	=132
1C	0c	1e	0cc
1F	.	1f	.
1G	1r	1d	1b
=133	=133	=133	=133
1C	0c	1e	1g
1F	.	1f	1.a
1G	1B	1d	.
.	.	.	2g
=134	=134	=134	=134
1E	1G	1c	0g
0D	0A	0d	.
.	.	.	1f#i
=135	=135	=135	=135
1.G	0.G	0d	0g
2F	.	.	.
2E	.	[1e	1r
2D	.	.	.
=136	=136	=136	=136
1C	0.r	1e]	0cc
1F	.	1f	.
1G	.	1d	1b
=137	=137	=137	=137
1C	0c	1e	1g
1F	.	1f	1.a
1G	1B	1d	.
.	.	.	2g
=138	=138	=138	=138
1E	1G	1c	0g
0D	0A	0d	.
.	.	.	1f#i
=139	=139	=139	=139
00GGl	00Gl	00dl	00gl
==	==	==	==
*-	*-	*-	*-
!!!system-decoration: [*]
!!!RDF**kern: i = editorial accidental
!!!RDF**kern: l = terminal long
!!!ENC: Benjamin Ory
!!!END: 2024/11/21
!!!EED: Benjamin Ory
!!!EEV: 2024/11/21
!!!YEC: Copyright 2024 Benjamin Ory, All Rights Reserved
!!!ONB: Translated from MusicXML on 2024/11/21
